content/blogs/regnskap/hva-er-betalingsevne/digitale-verktoy-betalingsevne.svg

<svg xmlns="http://www.w3.org/2000/svg" width="800" height="500"><defs><linearGradient id="a" x1="0%" x2="100%" y1="0%" y2="100%"><stop offset="0%" style="stop-color:#f8f9fa;stop-opacity:1"/><stop offset="100%" style="stop-color:#e9ecef;stop-opacity:1"/></linearGradient><linearGradient id="b" x1="0%" x2="100%" y1="0%" y2="100%"><stop offset="0%" style="stop-color:#4dabf7;stop-opacity:1"/><stop offset="100%" style="stop-color:#1c7ed6;stop-opacity:1"/></linearGradient><linearGradient id="c" x1="0%" x2="100%" y1="0%" y2="100%"><stop offset="0%" style="stop-color:#51cf66;stop-opacity:1"/><stop offset="100%" style="stop-color:#37b24d;stop-opacity:1"/></linearGradient><linearGradient id="d" x1="0%" x2="100%" y1="0%" y2="100%"><stop offset="0%" style="stop-color:#9775fa;stop-opacity:1"/><stop offset="100%" style="stop-color:#7048e8;stop-opacity:1"/></linearGradient></defs><path fill="url(#a)" d="M0 0h800v500H0z"/><text x="400" y="40" fill="#212529" font-family="Arial, sans-serif" font-size="24" font-weight="bold" text-anchor="middle">
    Digitale Verktøy for Likviditetsanalyse
  </text><g transform="translate(300 80)"><rect width="200" height="120" fill="url(#b)" stroke="#1c7ed6" stroke-width="3" rx="8"/><rect width="180" height="90" x="10" y="10" fill="#fff" opacity=".9" rx="4"/><rect width="60" height="30" x="20" y="20" fill="#51cf66" rx="2"/><text x="50" y="32" fill="#fff" font-family="Arial, sans-serif" font-size="8" text-anchor="middle">Likviditet</text><text x="50" y="42" fill="#fff" font-family="Arial, sans-serif" font-size="10" font-weight="bold" text-anchor="middle">1.67</text><rect width="60" height="30" x="90" y="20" fill="#fd7e14" rx="2"/><text x="120" y="32" fill="#fff" font-family="Arial, sans-serif" font-size="8" text-anchor="middle">Kontant</text><text x="120" y="42" fill="#fff" font-family="Arial, sans-serif" font-size="10" font-weight="bold" text-anchor="middle">0.33</text><rect width="20" height="30" x="160" y="20" fill="#e03131" rx="2"/><text x="170" y="38" fill="#fff" font-family="Arial, sans-serif" font-size="12" font-weight="bold" text-anchor="middle">⚠</text><rect width="160" height="30" x="20" y="60" fill="#e9ecef" rx="2"/><path fill="none" stroke="#4dabf7" stroke-width="2" d="m30 85 20-10 20 5 20-10 20 5 20-10 20 5 20-10"/><text x="100" y="115" fill="#fff" font-family="Arial, sans-serif" font-size="14" font-weight="bold" text-anchor="middle">
      DASHBOARD
    </text></g><g transform="translate(50 240)"><rect width="200" height="180" fill="url(#c)" stroke="#37b24d" stroke-width="2" rx="10"/><text x="100" y="25" fill="#fff" font-family="Arial, sans-serif" font-size="16" font-weight="bold" text-anchor="middle">
      REGNSKAPSSYSTEMER
    </text><rect width="50" height="30" x="75" y="35" fill="#fff" opacity=".3" rx="4"/><rect width="40" height="20" x="80" y="40" fill="#fff" opacity=".5" rx="2"/><text x="20" y="90" fill="#fff" font-family="Arial, sans-serif" font-size="12" font-weight="bold">
      Funksjoner:
    </text><text x="20" y="110" fill="#fff" font-family="Arial, sans-serif" font-size="11">
      • Automatisk rapportering
    </text><text x="20" y="125" fill="#fff" font-family="Arial, sans-serif" font-size="11">
      • Sanntids nøkkeltall
    </text><text x="20" y="140" fill="#fff" font-family="Arial, sans-serif" font-size="11">
      • Integrerte dashboards
    </text><text x="20" y="155" fill="#fff" font-family="Arial, sans-serif" font-size="11">
      • Prognosefunksjonalitet
    </text><text x="20" y="170" fill="#fff" font-family="Arial, sans-serif" font-size="11">
      • Historisk analyse
    </text></g><g transform="translate(300 240)"><rect width="200" height="180" fill="url(#d)" stroke="#7048e8" stroke-width="2" rx="10"/><text x="100" y="25" fill="#fff" font-family="Arial, sans-serif" font-size="16" font-weight="bold" text-anchor="middle">
      SPESIALISERTE VERKTØY
    </text><circle cx="100" cy="55" r="20" fill="#fff" opacity=".3"/><text x="100" y="62" fill="#fff" font-family="Arial, sans-serif" font-size="16" font-weight="bold" text-anchor="middle">
      ⚙️
    </text><text x="20" y="90" fill="#fff" font-family="Arial, sans-serif" font-size="12" font-weight="bold">
      Funksjoner:
    </text><text x="20" y="110" fill="#fff" font-family="Arial, sans-serif" font-size="11">
      • Kontantstrømplanlegging
    </text><text x="20" y="125" fill="#fff" font-family="Arial, sans-serif" font-size="11">
      • Kredittovervåking
    </text><text x="20" y="140" fill="#fff" font-family="Arial, sans-serif" font-size="11">
      • Scenarioanalyse
    </text><text x="20" y="155" fill="#fff" font-family="Arial, sans-serif" font-size="11">
      • Risikostyring
    </text><text x="20" y="170" fill="#fff" font-family="Arial, sans-serif" font-size="11">
      • Benchmarking
    </text></g><g transform="translate(550 240)"><rect width="200" height="180" fill="#fd7e14" stroke="#e8590c" stroke-width="2" rx="10"/><text x="100" y="25" fill="#fff" font-family="Arial, sans-serif" font-size="16" font-weight="bold" text-anchor="middle">
      BANKINTEGRASJON
    </text><rect width="50" height="30" x="75" y="35" fill="#fff" opacity=".3" rx="4"/><rect width="30" height="5" x="85" y="40" fill="#fff" opacity=".5" rx="1"/><rect width="30" height="5" x="85" y="50" fill="#fff" opacity=".5" rx="1"/><rect width="30" height="5" x="85" y="60" fill="#fff" opacity=".5" rx="1"/><text x="20" y="90" fill="#fff" font-family="Arial, sans-serif" font-size="12" font-weight="bold">
      Funksjoner:
    </text><text x="20" y="110" fill="#fff" font-family="Arial, sans-serif" font-size="11">
      • Sanntids kontosaldo
    </text><text x="20" y="125" fill="#fff" font-family="Arial, sans-serif" font-size="11">
      • Automatisk avstemming
    </text><text x="20" y="140" fill="#fff" font-family="Arial, sans-serif" font-size="11">
      • Transaksjonsovervåking
    </text><text x="20" y="155" fill="#fff" font-family="Arial, sans-serif" font-size="11">
      • Betalingsautomatisering
    </text><text x="20" y="170" fill="#fff" font-family="Arial, sans-serif" font-size="11">
      • Likviditetsprognoser
    </text></g><path stroke="#495057" stroke-width="2" d="M250 140h50M500 140h50M400 200v40"/><path fill="none" stroke="#495057" stroke-width="2" d="m270 130 10 10-10 10M520 130l10 10-10 10M390 220l10 10 10-10"/><g font-family="Arial, sans-serif" text-anchor="middle"><text x="200" y="20" fill="#212529" font-size="16" font-weight="bold" transform="translate(200 450)">
      Fordeler med Digitale Verktøy
    </text><text x="200" y="40" fill="#495057" font-size="12" transform="translate(200 450)">
      Sanntidsdata • Automatisering • Bedre prognoser • Redusert risiko • Effektiv rapportering
    </text></g></svg>

<svg width="800" height="500" xmlns="http://www.w3.org/2000/svg">
  <defs>
    <linearGradient id="bgGradient" x1="0%" y1="0%" x2="100%" y2="100%">
      <stop offset="0%" style="stop-color:#f8f9fa;stop-opacity:1" />
      <stop offset="100%" style="stop-color:#e9ecef;stop-opacity:1" />
    </linearGradient>
    <linearGradient id="blueGradient" x1="0%" y1="0%" x2="100%" y2="100%">
      <stop offset="0%" style="stop-color:#4dabf7;stop-opacity:1" />
      <stop offset="100%" style="stop-color:#1c7ed6;stop-opacity:1" />
    </linearGradient>
    <linearGradient id="greenGradient" x1="0%" y1="0%" x2="100%" y2="100%">
      <stop offset="0%" style="stop-color:#51cf66;stop-opacity:1" />
      <stop offset="100%" style="stop-color:#37b24d;stop-opacity:1" />
    </linearGradient>
    <linearGradient id="purpleGradient" x1="0%" y1="0%" x2="100%" y2="100%">
      <stop offset="0%" style="stop-color:#9775fa;stop-opacity:1" />
      <stop offset="100%" style="stop-color:#7048e8;stop-opacity:1" />
    </linearGradient>
  </defs>
  

  <rect width="800" height="500" fill="url(#bgGradient)"/>
  

  <text x="400" y="40" text-anchor="middle" font-family="Arial, sans-serif" font-size="24" font-weight="bold" fill="#212529">
    Digitale Verktøy for Likviditetsanalyse
  </text>
  

  <g transform="translate(300, 80)">
    <rect x="0" y="0" width="200" height="120" rx="8" fill="url(#blueGradient)" stroke="#1c7ed6" stroke-width="3"/>
    <rect x="10" y="10" width="180" height="90" rx="4" fill="white" opacity="0.9"/>
    

    <rect x="20" y="20" width="60" height="30" rx="2" fill="#51cf66"/>
    <text x="50" y="32" text-anchor="middle" font-family="Arial, sans-serif" font-size="8" fill="white">Likviditet</text>
    <text x="50" y="42" text-anchor="middle" font-family="Arial, sans-serif" font-size="10" font-weight="bold" fill="white">1.67</text>
    
    <rect x="90" y="20" width="60" height="30" rx="2" fill="#fd7e14"/>
    <text x="120" y="32" text-anchor="middle" font-family="Arial, sans-serif" font-size="8" fill="white">Kontant</text>
    <text x="120" y="42" text-anchor="middle" font-family="Arial, sans-serif" font-size="10" font-weight="bold" fill="white">0.33</text>
    
    <rect x="160" y="20" width="20" height="30" rx="2" fill="#e03131"/>
    <text x="170" y="38" text-anchor="middle" font-family="Arial, sans-serif" font-size="12" font-weight="bold" fill="white">⚠</text>
    

    <rect x="20" y="60" width="160" height="30" rx="2" fill="#e9ecef"/>
    <path d="M 30 85 L 50 75 L 70 80 L 90 70 L 110 75 L 130 65 L 150 70 L 170 60" stroke="#4dabf7" stroke-width="2" fill="none"/>
    
    <text x="100" y="115" text-anchor="middle" font-family="Arial, sans-serif" font-size="14" font-weight="bold" fill="white">
      DASHBOARD
    </text>
  </g>
  

  <g transform="translate(50, 240)">
    <rect x="0" y="0" width="200" height="180" rx="10" fill="url(#greenGradient)" stroke="#37b24d" stroke-width="2"/>
    
    <text x="100" y="25" text-anchor="middle" font-family="Arial, sans-serif" font-size="16" font-weight="bold" fill="white">
      REGNSKAPSSYSTEMER
    </text>
    

    <rect x="75" y="35" width="50" height="30" rx="4" fill="white" opacity="0.3"/>
    <rect x="80" y="40" width="40" height="20" rx="2" fill="white" opacity="0.5"/>
    

    <text x="20" y="90" font-family="Arial, sans-serif" font-size="12" font-weight="bold" fill="white">
      Funksjoner:
    </text>
    <text x="20" y="110" font-family="Arial, sans-serif" font-size="11" fill="white">
      • Automatisk rapportering
    </text>
    <text x="20" y="125" font-family="Arial, sans-serif" font-size="11" fill="white">
      • Sanntids nøkkeltall
    </text>
    <text x="20" y="140" font-family="Arial, sans-serif" font-size="11" fill="white">
      • Integrerte dashboards
    </text>
    <text x="20" y="155" font-family="Arial, sans-serif" font-size="11" fill="white">
      • Prognosefunksjonalitet
    </text>
    <text x="20" y="170" font-family="Arial, sans-serif" font-size="11" fill="white">
      • Historisk analyse
    </text>
  </g>
  

  <g transform="translate(300, 240)">
    <rect x="0" y="0" width="200" height="180" rx="10" fill="url(#purpleGradient)" stroke="#7048e8" stroke-width="2"/>
    
    <text x="100" y="25" text-anchor="middle" font-family="Arial, sans-serif" font-size="16" font-weight="bold" fill="white">
      SPESIALISERTE VERKTØY
    </text>
    

    <circle cx="100" cy="55" r="20" fill="white" opacity="0.3"/>
    <text x="100" y="62" text-anchor="middle" font-family="Arial, sans-serif" font-size="16" font-weight="bold" fill="white">
      ⚙️
    </text>
    

    <text x="20" y="90" font-family="Arial, sans-serif" font-size="12" font-weight="bold" fill="white">
      Funksjoner:
    </text>
    <text x="20" y="110" font-family="Arial, sans-serif" font-size="11" fill="white">
      • Kontantstrømplanlegging
    </text>
    <text x="20" y="125" font-family="Arial, sans-serif" font-size="11" fill="white">
      • Kredittovervåking
    </text>
    <text x="20" y="140" font-family="Arial, sans-serif" font-size="11" fill="white">
      • Scenarioanalyse
    </text>
    <text x="20" y="155" font-family="Arial, sans-serif" font-size="11" fill="white">
      • Risikostyring
    </text>
    <text x="20" y="170" font-family="Arial, sans-serif" font-size="11" fill="white">
      • Benchmarking
    </text>
  </g>
  

  <g transform="translate(550, 240)">
    <rect x="0" y="0" width="200" height="180" rx="10" fill="#fd7e14" stroke="#e8590c" stroke-width="2"/>
    
    <text x="100" y="25" text-anchor="middle" font-family="Arial, sans-serif" font-size="16" font-weight="bold" fill="white">
      BANKINTEGRASJON
    </text>
    

    <rect x="75" y="35" width="50" height="30" rx="4" fill="white" opacity="0.3"/>
    <rect x="85" y="40" width="30" height="5" rx="1" fill="white" opacity="0.5"/>
    <rect x="85" y="50" width="30" height="5" rx="1" fill="white" opacity="0.5"/>
    <rect x="85" y="60" width="30" height="5" rx="1" fill="white" opacity="0.5"/>
    

    <text x="20" y="90" font-family="Arial, sans-serif" font-size="12" font-weight="bold" fill="white">
      Funksjoner:
    </text>
    <text x="20" y="110" font-family="Arial, sans-serif" font-size="11" fill="white">
      • Sanntids kontosaldo
    </text>
    <text x="20" y="125" font-family="Arial, sans-serif" font-size="11" fill="white">
      • Automatisk avstemming
    </text>
    <text x="20" y="140" font-family="Arial, sans-serif" font-size="11" fill="white">
      • Transaksjonsovervåking
    </text>
    <text x="20" y="155" font-family="Arial, sans-serif" font-size="11" fill="white">
      • Betalingsautomatisering
    </text>
    <text x="20" y="170" font-family="Arial, sans-serif" font-size="11" fill="white">
      • Likviditetsprognoser
    </text>
  </g>
  

  <line x1="250" y1="140" x2="300" y2="140" stroke="#495057" stroke-width="2"/>
  <line x1="500" y1="140" x2="550" y2="140" stroke="#495057" stroke-width="2"/>
  <line x1="400" y1="200" x2="400" y2="240" stroke="#495057" stroke-width="2"/>
  

  <path d="M 270 130 L 280 140 L 270 150" stroke="#495057" stroke-width="2" fill="none"/>
  <path d="M 520 130 L 530 140 L 520 150" stroke="#495057" stroke-width="2" fill="none"/>
  <path d="M 390 220 L 400 230 L 410 220" stroke="#495057" stroke-width="2" fill="none"/>
  

  <g transform="translate(200, 450)">
    <text x="200" y="20" text-anchor="middle" font-family="Arial, sans-serif" font-size="16" font-weight="bold" fill="#212529">
      Fordeler med Digitale Verktøy
    </text>
    <text x="200" y="40" text-anchor="middle" font-family="Arial, sans-serif" font-size="12" fill="#495057">
      Sanntidsdata • Automatisering • Bedre prognoser • Redusert risiko • Effektiv rapportering
    </text>
  </g>
</svg>
